X:8
T:Harvest Home Hornpipe (Craig 8)
M:C
L:1/8
B:Empire Violin Collection of Hornpipes
H:Published by Thomas Craig
H:Music Publisher, &c.
H:George Street, Aberdeen, N.B.
Z:Peter Dunk December 2011
R:hornpipe
Q:1/4=140
K:D
A2 | DAFA DAFA | defe dcBA | eAfA gAfA | (3efd (cB) AGFE |!
DAFA DAFA | defe dcBA | eAfA gece| d2f2d2 :|!
|:(cd) | eAAA fAAA | gAAA fAAA | eAfA gAfA | (3efd (cB) AGFE |!
DAFA DAFA | defe dcBA | eAfA gece | d2d2d2:|

